svg/icon/dgld.svg

<svg xmlns="http://www.w3.org/2000/svg" width="627" height="450" style="shape-rendering:geometricPrecision;text-rendering:geometricPrecision;image-rendering:optimizeQuality;fill-rule:evenodd;clip-rule:evenodd"><path fill="#f09237" d="M297.5 79.5q92.446-5.406 141.5 72 39 73 0 146-49.019 77.637-141.5 71.5-72.333-9.915-110.5-71.5-39-73 0-146 38.395-61.608 110.5-72" style="opacity:1"/><path fill="#fae75d" d="M449.5 195.5a112.4 112.4 0 0 1 2.5 28 88.7 88.7 0 0 0-18.5-1 93.8 93.8 0 0 0-2-22 90 90 0 0 0 18-5" style="opacity:1"/><path fill="#fae55d" d="M191.5 217.5h-18a78.9 78.9 0 0 1 5-27 185 185 0 0 0 15.5 5q-.333 11.253-2.5 22" style="opacity:1"/><path fill="#fef6eb" d="M449.5 195.5a90 90 0 0 1-18 5q-1.37-2.379 0-4.5a200 200 0 0 0 16.5-4.5q1.782 1.595 1.5 4" style="opacity:1"/><path fill="#fef9f3" d="M180.5 181.5a323 323 0 0 1 17 5q-.088 3.333-3.5 3a241 241 0 0 1-10.5-2.5q-5.108-1.13-3-5.5" style="opacity:1"/><path fill="#fae75d" d="M436.5 160.5q7.076 12.173 11 26a397 397 0 0 0-19 5 90.8 90.8 0 0 0-7-21 139 139 0 0 1 14-7.5q1.129-1.006 1-2.5" style="opacity:1"/><path fill="#fef9f2" d="M436.5 160.5q.129 1.494-1 2.5a139 139 0 0 0-14 7.5q-2.58-1.877-1-4.5a313 313 0 0 0 14.5-8.5q1.558 1.116 1.5 3" style="opacity:1"/><path fill="#fae65d" d="M197.5 186.5a323 323 0 0 0-17-5 118 118 0 0 1 11-25 174 174 0 0 1 15 10 134 134 0 0 0-9 20" style="opacity:1"/><path fill="#fef9f0" d="M196.5 148.5a169 169 0 0 0 15 9q-.534 2.055-2.5 3a350 350 0 0 1-15.5-8.5 30 30 0 0 0 3-3.5" style="opacity:1"/><path fill="#fae75d" d="M416.5 131.5a124.4 124.4 0 0 1 16 21 123 123 0 0 1-15.5 10 396 396 0 0 0-13.5-19 57 57 0 0 0 13-12m-205 26a169 169 0 0 1-15-9q6.784-11.549 16.5-21l12.5 12.5q-7.93 8.17-14 17.5" style="opacity:1"/><path fill="#fef6ea" d="M416.5 131.5a57 57 0 0 1-13 12q-2.66-1.221-1.5-4l10.5-10.5q2.868-.419 4 2.5" style="opacity:1"/><path fill="#fef3e7" d="M219.5 121.5a691 691 0 0 1 13 12q-1.131 2.919-4 2.5l-12-12a10.5 10.5 0 0 1 3-2.5" style="opacity:1"/><path fill="#fae75d" d="M388.5 107.5q12.052 7.288 22 17.5a119 119 0 0 0-13.5 12.5 116 116 0 0 0-17.5-14q4.542-8.025 9-16m-156 26a691 691 0 0 0-13-12 138 138 0 0 1 22-17 360 360 0 0 0 9 15.5 270 270 0 0 0-18 13.5" style="opacity:1"/><path fill="#fefcf8" d="M299.5 108.5q84.403-3.699 120.5 72 21.448 58.803-13 111-44.467 57.005-116.5 46.5-74.404-17.905-91.5-92.5-10.588-74.788 50.5-118.5 23.138-14.79 50-18.5" style="opacity:1"/><path fill="#fae85e" d="M302.5 115.5q81.995-1.186 113.5 74 18.863 67.303-30.5 116.5-59.195 47.275-127 13-64.418-42.669-51.5-119.5 4.935-19.57 16.5-36 16.878 11.385 30.5-4 7.176-12.458-.5-24.5a3.94 3.94 0 0 1 1-2q22.209-13.984 48-17.5" style="opacity:1"/><path fill="#fefefc" d="M341.5 256.5q.814-.09 1-1a57.2 57.2 0 0 0-15-1v-11q9.285.485 18-1v-3q1.442-2.647 1-6h-39v-13h54v23h17v11h-17v32h-11a50 50 0 0 0-4-15q-23.337 24.912-57 17.5-27.844-7.344-37.5-34.5-9.437-30.193 1-60 22.416-44.83 71.5-33.5 30.382 7.499 35 38.5h-17q-5.105-23.101-29-25.5-38.686-2.508-47.5 35.5a180.5 180.5 0 0 0 1 35q10.499 36.644 48.5 30.5 17.594-3.026 26-18.5" style="opacity:1"/><path fill="#fef9f1" d="M388.5 107.5a3495 3495 0 0 1-9 16q-4.76-2.014-1.5-6 3.375-6.252 7.5-12 1.858.663 3 2" style="opacity:1"/><path fill="#fef9f2" d="M250.5 100.5a161 161 0 0 0 8 15q-1.142 1.337-3 2a169 169 0 0 1-9-15q1.615-1.808 4-2" style="opacity:1"/><path fill="#fae75d" d="M355.5 91.5a150 150 0 0 1 26 11.5 129 129 0 0 0-10.5 15.5 103 103 0 0 0-19.5-9 269 269 0 0 1 4-18m-97 24a161 161 0 0 1-8-15q11.422-7.315 25-10a102.6 102.6 0 0 1 3.5 17 546 546 0 0 0-20.5 8" style="opacity:1"/><path fill="#fef8ef" d="M355.5 91.5a269 269 0 0 0-4 18q-5.036-.931-3.5-6a64.6 64.6 0 0 1 4.5-13q1.375.94 3 1" style="opacity:1"/><path fill="#fefaf2" d="M284.5 88.5a153 153 0 0 1 4 17 5.6 5.6 0 0 0-3 1 181 181 0 0 1-5-18z" style="opacity:1"/><path fill="#fae75f" d="M319.5 85.5q13.207.275 26 3.5.686.621 1 1.5a70.3 70.3 0 0 0-4 16 137.3 137.3 0 0 0-23-3z" style="opacity:1"/><path fill="#fae75d" d="M288.5 105.5a153 153 0 0 0-4-17q12.567-3.444 26-3v18a123 123 0 0 0-22 2" style="opacity:1"/><path fill="#fefbf8" d="M319.5 85.5v18h-4v-18z" style="opacity:1"/><path fill="#fefdfb" d="M173.5 217.5h18v4h-18z" style="opacity:1"/><path fill="#f6c54d" d="M192.5 236.5q-1.465-4.18-1-9h-17v12q-1.477-6.202-1-13h19z" style="opacity:1"/><path fill="#fae85e" d="M192.5 236.5a53 53 0 0 0 2 13 88 88 0 0 0-18 4 152 152 0 0 0-2-14v-12h17q-.465 4.82 1 9" style="opacity:1"/><path fill="#fefcf5" d="M451.5 232.5h-18v-4h19q.401 2.398-1 4" style="opacity:1"/><path fill="#fcf4b5" d="M361.5 220.5h-54v13h39q.442 3.353-1 6v-5h-39v-15q27.762-.495 55 1" style="opacity:1"/><path fill="#fae65c" d="M433.5 232.5h18a174 174 0 0 1-3 26 63.2 63.2 0 0 1-17-4l-1-3.5q1.455-9.476 3-18.5" style="opacity:1"/><path fill="#fcf1a0" d="M361.5 220.5q1.488 10.722 1 22 8.29-.482 16 1h-17z" style="opacity:1"/><path fill="#fef9f1" d="M194.5 249.5q.393 2.217-1 4a248 248 0 0 0-15 4q-1.808-1.615-2-4a88 88 0 0 1 18-4" style="opacity:1"/><path fill="#fdf6c0" d="M345.5 242.5q-8.715 1.485-18 1v11a57.2 57.2 0 0 1 15 1q-.186.91-1 1-7.207-1.481-15-1v-13z" style="opacity:1"/><path fill="#fcf2a5" d="M378.5 254.5q-7.71 1.482-16 1 .491 15.77-1 31v-32z" style="opacity:1"/><path fill="#fef8ee" d="M444.5 268.5a249 249 0 0 0-17-5v-4l19 4q.147 3.08-2 5" style="opacity:1"/><path fill="#fae75d" d="m204.5 279.5-16 8a142.5 142.5 0 0 1-9-23.5q8.19-4.815 18-5.5 2.605 10.815 7 21m223-16a249 249 0 0 1 17 5 65 65 0 0 1-5.5 16q-1.767 4.549-5 8a4354 4354 0 0 1-13.5-7.5 7.25 7.25 0 0 1-2-2.5 243 243 0 0 0 9-19" style="opacity:1"/><path fill="#fef8ef" d="M204.5 279.5q2.964 1.39 1 4a193 193 0 0 0-14.5 8 12.6 12.6 0 0 1-2.5-4z" style="opacity:1"/><path fill="#fef9f1" d="M429.5 300.5a94 94 0 0 1-16-9q1.795-5.091 6-1.5a140 140 0 0 0 12 7.5q-.663 1.858-2 3" style="opacity:1"/><path fill="#fae75d" d="M222.5 305.5q-6.539 6.042-13 12a153 153 0 0 1-15.5-20q-1.032-1.247.5-2a308 308 0 0 1 14.5-8 355 355 0 0 1 13.5 18m191-14a94 94 0 0 0 16 9q-6.532 11.295-16 20.5-7.955-4.678-14-12.5a299 299 0 0 0 14-17" style="opacity:1"/><path fill="#fef7ee" d="M222.5 305.5a10.5 10.5 0 0 1 3 2.5l-12 12q-2.869.419-4-2.5 6.461-5.958 13-12" style="opacity:1"/><path fill="#fae75d" d="M246.5 325.5a174 174 0 0 1-10 15q-10.763-5.991-19.5-15-1-1 0-2l12-12a116 116 0 0 0 17.5 14" style="opacity:1"/><path fill="#fef7ee" d="M405.5 328.5a119.6 119.6 0 0 0-13-13q1.132-2.919 4-2.5l11.5 11.5q.419 2.868-2.5 4" style="opacity:1"/><path fill="#fae75d" d="M392.5 315.5a119.6 119.6 0 0 1 13 13 124.4 124.4 0 0 1-21 16 119.4 119.4 0 0 1-9-15.5 125 125 0 0 1 17-13.5" style="opacity:1"/><path fill="#fef8f0" d="M246.5 325.5q2.055.534 3 2.5a73.7 73.7 0 0 1-9.5 15.5q-2.277-.995-3.5-3a174 174 0 0 0 10-15" style="opacity:1"/><path fill="#fef9f1" d="M375.5 348.5q-4.477-7.947-9-16a18.5 18.5 0 0 0 3.5-2 169 169 0 0 0 9 15q-.05 2.967-3.5 3" style="opacity:1"/><path fill="#fae75d" d="M274.5 339.5a323 323 0 0 0-5 17q-13.191-3.099-24-11a86.5 86.5 0 0 1 9.5-15q9.75 4.753 19.5 9" style="opacity:1"/><path fill="#fae75e" d="M366.5 332.5q4.523 8.053 9 16-11.57 7.024-25 10a170 170 0 0 1-3.5-18 166 166 0 0 0 19.5-8" style="opacity:1"/><path fill="#fef6ea" d="M274.5 339.5q3.202-.53 4 2.5a56.8 56.8 0 0 0-4 16.5q-3.08.147-5-2a323 323 0 0 1 5-17" style="opacity:1"/><path fill="#fef8f1" d="M337.5 342.5h4l4 18h-4a176 176 0 0 1-4-18" style="opacity:1"/><path fill="#fae75e" d="M305.5 344.5v19a97.3 97.3 0 0 1-25-3.5q-1-9.764 4-18.5 10.18 3.563 21 3m32-2a176 176 0 0 0 4 18q-9.13 2.586-19 3h-7v-18q2.872.426 5-1a110.5 110.5 0 0 0 17-2" style="opacity:1"/><path fill="#fefbf8" d="M305.5 344.5h4v19h-4z" style="opacity:1"/><path fill="#f5c24b" d="M320.5 344.5q-2.128 1.426-5 1v18h7q-3.672 1.46-8 1v-20z" style="opacity:1"/></svg>

<?xml version="1.0" encoding="UTF-8"?>
<!DOCTYPE svg PUBLIC "-//W3C//DTD SVG 1.1//EN" "http://www.w3.org/Graphics/SVG/1.1/DTD/svg11.dtd">
<svg xmlns="http://www.w3.org/2000/svg" version="1.1" width="627px" height="450px" style="shape-rendering:geometricPrecision; text-rendering:geometricPrecision; image-rendering:optimizeQuality; fill-rule:evenodd; clip-rule:evenodd" xmlns:xlink="http://www.w3.org/1999/xlink">
<g><path style="opacity:1" fill="#f09237" d="M 297.5,79.5 C 359.131,75.8959 406.297,99.8959 439,151.5C 465,200.167 465,248.833 439,297.5C 406.321,349.258 359.154,373.091 297.5,369C 249.278,362.39 212.445,338.557 187,297.5C 161,248.833 161,200.167 187,151.5C 212.597,110.428 249.43,86.4277 297.5,79.5 Z"/></g>
<g><path style="opacity:1" fill="#fae75d" d="M 449.5,195.5 C 451.505,204.726 452.339,214.059 452,223.5C 445.924,222.524 439.758,222.19 433.5,222.5C 433.698,215.075 433.032,207.742 431.5,200.5C 437.665,199.459 443.665,197.792 449.5,195.5 Z"/></g>
<g><path style="opacity:1" fill="#fae55d" d="M 191.5,217.5 C 185.5,217.5 179.5,217.5 173.5,217.5C 173.59,208.198 175.257,199.198 178.5,190.5C 183.618,192.403 188.785,194.069 194,195.5C 193.778,203.002 192.945,210.335 191.5,217.5 Z"/></g>
<g><path style="opacity:1" fill="#fef6eb" d="M 449.5,195.5 C 443.665,197.792 437.665,199.459 431.5,200.5C 430.587,198.914 430.587,197.414 431.5,196C 437.094,194.727 442.594,193.227 448,191.5C 449.188,192.563 449.688,193.897 449.5,195.5 Z"/></g>
<g><path style="opacity:1" fill="#fef9f3" d="M 180.5,181.5 C 186.212,183.011 191.879,184.678 197.5,186.5C 197.441,188.722 196.275,189.722 194,189.5C 190.482,188.745 186.982,187.912 183.5,187C 180.095,186.247 179.095,184.414 180.5,181.5 Z"/></g>
<g><path style="opacity:1" fill="#fae75d" d="M 436.5,160.5 C 441.217,168.615 444.884,177.282 447.5,186.5C 441.111,188.014 434.777,189.68 428.5,191.5C 427.023,184.213 424.689,177.213 421.5,170.5C 425.946,167.774 430.613,165.274 435.5,163C 436.252,162.329 436.586,161.496 436.5,160.5 Z"/></g>
<g><path style="opacity:1" fill="#fef9f2" d="M 436.5,160.5 C 436.586,161.496 436.252,162.329 435.5,163C 430.613,165.274 425.946,167.774 421.5,170.5C 419.78,169.249 419.447,167.749 420.5,166C 425.416,163.293 430.249,160.459 435,157.5C 436.039,158.244 436.539,159.244 436.5,160.5 Z"/></g>
<g><path style="opacity:1" fill="#fae65d" d="M 197.5,186.5 C 191.879,184.678 186.212,183.011 180.5,181.5C 183.197,172.742 186.864,164.408 191.5,156.5C 196.709,159.598 201.709,162.932 206.5,166.5C 202.937,172.956 199.937,179.622 197.5,186.5 Z"/></g>
<g><path style="opacity:1" fill="#fef9f0" d="M 196.5,148.5 C 201.334,151.752 206.334,154.752 211.5,157.5C 211.144,158.87 210.31,159.87 209,160.5C 203.769,157.801 198.602,154.968 193.5,152C 194.636,150.855 195.636,149.688 196.5,148.5 Z"/></g>
<g><path style="opacity:1" fill="#fae75d" d="M 416.5,131.5 C 422.545,137.889 427.878,144.889 432.5,152.5C 427.625,156.194 422.458,159.527 417,162.5C 412.669,156.01 408.169,149.676 403.5,143.5C 408.445,140.189 412.778,136.189 416.5,131.5 Z"/></g>
<g><path style="opacity:1" fill="#fae75d" d="M 211.5,157.5 C 206.334,154.752 201.334,151.752 196.5,148.5C 201.023,140.801 206.523,133.801 213,127.5C 217.167,131.667 221.333,135.833 225.5,140C 220.213,145.447 215.547,151.28 211.5,157.5 Z"/></g>
<g><path style="opacity:1" fill="#fef6ea" d="M 416.5,131.5 C 412.778,136.189 408.445,140.189 403.5,143.5C 401.727,142.686 401.227,141.352 402,139.5C 405.5,136 409,132.5 412.5,129C 414.412,128.721 415.746,129.554 416.5,131.5 Z"/></g>
<g><path style="opacity:1" fill="#fef3e7" d="M 219.5,121.5 C 223.811,125.377 228.145,129.377 232.5,133.5C 231.746,135.446 230.412,136.279 228.5,136C 224.5,132 220.5,128 216.5,124C 217.373,122.955 218.373,122.122 219.5,121.5 Z"/></g>
<g><path style="opacity:1" fill="#fae75d" d="M 388.5,107.5 C 396.535,112.359 403.868,118.192 410.5,125C 405.699,128.799 401.199,132.966 397,137.5C 391.581,132.24 385.747,127.573 379.5,123.5C 382.528,118.15 385.528,112.816 388.5,107.5 Z"/></g>
<g><path style="opacity:1" fill="#fae75d" d="M 232.5,133.5 C 228.145,129.377 223.811,125.377 219.5,121.5C 226.219,115.123 233.553,109.457 241.5,104.5C 244.37,109.739 247.37,114.906 250.5,120C 244.291,124.266 238.291,128.766 232.5,133.5 Z"/></g>
<g><path style="opacity:1" fill="#fefcf8" d="M 299.5,108.5 C 355.769,106.034 395.935,130.034 420,180.5C 434.299,219.702 429.965,256.702 407,291.5C 377.355,329.503 338.522,345.003 290.5,338C 240.897,326.063 210.397,295.23 199,245.5C 191.941,195.641 208.775,156.141 249.5,127C 264.925,117.14 281.592,110.973 299.5,108.5 Z"/></g>
<g><path style="opacity:1" fill="#fae85e" d="M 302.5,115.5 C 357.163,114.709 394.997,139.376 416,189.5C 428.575,234.368 418.409,273.202 385.5,306C 346.037,337.517 303.703,341.85 258.5,319C 215.554,290.554 198.388,250.721 207,199.5C 210.29,186.453 215.79,174.453 223.5,163.5C 234.752,171.09 244.919,169.756 254,159.5C 258.784,151.195 258.617,143.028 253.5,135C 253.645,134.228 253.978,133.561 254.5,133C 269.306,123.678 285.306,117.844 302.5,115.5 Z"/></g>
<g><path style="opacity:1" fill="#fefefc" d="M 341.5,256.5 C 342.043,256.44 342.376,256.107 342.5,255.5C 337.544,254.506 332.544,254.173 327.5,254.5C 327.5,250.833 327.5,247.167 327.5,243.5C 333.69,243.823 339.69,243.49 345.5,242.5C 345.5,241.5 345.5,240.5 345.5,239.5C 346.461,237.735 346.795,235.735 346.5,233.5C 333.5,233.5 320.5,233.5 307.5,233.5C 307.5,229.167 307.5,224.833 307.5,220.5C 325.5,220.5 343.5,220.5 361.5,220.5C 361.5,228.167 361.5,235.833 361.5,243.5C 367.167,243.5 372.833,243.5 378.5,243.5C 378.5,247.167 378.5,250.833 378.5,254.5C 372.833,254.5 367.167,254.5 361.5,254.5C 361.5,265.167 361.5,275.833 361.5,286.5C 357.833,286.5 354.167,286.5 350.5,286.5C 349.946,281.282 348.612,276.282 346.5,271.5C 330.942,288.108 311.942,293.941 289.5,289C 270.937,284.104 258.437,272.604 252,254.5C 245.709,234.371 246.042,214.371 253,194.5C 267.944,164.614 291.777,153.447 324.5,161C 344.755,165.999 356.421,178.833 359.5,199.5C 353.833,199.5 348.167,199.5 342.5,199.5C 339.097,184.099 329.43,175.599 313.5,174C 287.709,172.328 271.876,184.161 266,209.5C 265.199,221.202 265.532,232.868 267,244.5C 273.999,268.929 290.166,279.096 315.5,275C 327.229,272.983 335.896,266.816 341.5,256.5 Z"/></g>
<g><path style="opacity:1" fill="#fef9f1" d="M 388.5,107.5 C 385.528,112.816 382.528,118.15 379.5,123.5C 376.327,122.157 375.827,120.157 378,117.5C 380.25,113.332 382.75,109.332 385.5,105.5C 386.739,105.942 387.739,106.609 388.5,107.5 Z"/></g>
<g><path style="opacity:1" fill="#fef9f2" d="M 250.5,100.5 C 252.912,105.659 255.579,110.659 258.5,115.5C 257.739,116.391 256.739,117.058 255.5,117.5C 252.248,112.666 249.248,107.666 246.5,102.5C 247.577,101.295 248.91,100.628 250.5,100.5 Z"/></g>
<g><path style="opacity:1" fill="#fae75d" d="M 355.5,91.5 C 364.493,94.4946 373.16,98.3279 381.5,103C 377.629,107.907 374.129,113.074 371,118.5C 364.789,114.81 358.289,111.81 351.5,109.5C 352.629,103.448 353.963,97.4477 355.5,91.5 Z"/></g>
<g><path style="opacity:1" fill="#fae75d" d="M 258.5,115.5 C 255.579,110.659 252.912,105.659 250.5,100.5C 258.115,95.6226 266.448,92.2893 275.5,90.5C 277.158,96.121 278.324,101.788 279,107.5C 272.105,110.032 265.271,112.699 258.5,115.5 Z"/></g>
<g><path style="opacity:1" fill="#fef8ef" d="M 355.5,91.5 C 353.963,97.4477 352.629,103.448 351.5,109.5C 348.143,108.879 346.976,106.879 348,103.5C 349.042,98.9923 350.542,94.6589 352.5,90.5C 353.417,91.1272 354.417,91.4606 355.5,91.5 Z"/></g>
<g><path style="opacity:1" fill="#fefaf2" d="M 284.5,88.5 C 286.152,94.0671 287.485,99.7338 288.5,105.5C 287.417,105.539 286.417,105.873 285.5,106.5C 283.516,100.563 281.85,94.563 280.5,88.5C 281.833,88.5 283.167,88.5 284.5,88.5 Z"/></g>
<g><path style="opacity:1" fill="#fae75f" d="M 319.5,85.5 C 328.305,85.6839 336.971,86.8505 345.5,89C 345.957,89.414 346.291,89.914 346.5,90.5C 344.537,95.6842 343.204,101.018 342.5,106.5C 334.923,104.852 327.256,103.852 319.5,103.5C 319.5,97.5 319.5,91.5 319.5,85.5 Z"/></g>
<g><path style="opacity:1" fill="#fae75d" d="M 288.5,105.5 C 287.485,99.7338 286.152,94.0671 284.5,88.5C 292.878,86.204 301.544,85.204 310.5,85.5C 310.5,91.5 310.5,97.5 310.5,103.5C 303.087,103.509 295.753,104.176 288.5,105.5 Z"/></g>
<g><path style="opacity:1" fill="#fefbf8" d="M 319.5,85.5 C 319.5,91.5 319.5,97.5 319.5,103.5C 318.167,103.5 316.833,103.5 315.5,103.5C 315.5,97.5 315.5,91.5 315.5,85.5C 316.833,85.5 318.167,85.5 319.5,85.5 Z"/></g>
<g><path style="opacity:1" fill="#fefdfb" d="M 173.5,217.5 C 179.5,217.5 185.5,217.5 191.5,217.5C 191.5,218.833 191.5,220.167 191.5,221.5C 185.5,221.5 179.5,221.5 173.5,221.5C 173.5,220.167 173.5,218.833 173.5,217.5 Z"/></g>
<g><path style="opacity:1" fill="#f6c54d" d="M 192.5,236.5 C 191.523,233.713 191.19,230.713 191.5,227.5C 185.833,227.5 180.167,227.5 174.5,227.5C 174.5,231.5 174.5,235.5 174.5,239.5C 173.515,235.366 173.182,231.032 173.5,226.5C 179.833,226.5 186.167,226.5 192.5,226.5C 192.5,229.833 192.5,233.167 192.5,236.5 Z"/></g>
<g><path style="opacity:1" fill="#fae85e" d="M 192.5,236.5 C 192.631,240.952 193.298,245.286 194.5,249.5C 188.336,250.208 182.336,251.542 176.5,253.5C 176.05,248.798 175.383,244.132 174.5,239.5C 174.5,235.5 174.5,231.5 174.5,227.5C 180.167,227.5 185.833,227.5 191.5,227.5C 191.19,230.713 191.523,233.713 192.5,236.5 Z"/></g>
<g><path style="opacity:1" fill="#fefcf5" d="M 451.5,232.5 C 445.5,232.5 439.5,232.5 433.5,232.5C 433.5,231.167 433.5,229.833 433.5,228.5C 439.833,228.5 446.167,228.5 452.5,228.5C 452.768,230.099 452.434,231.432 451.5,232.5 Z"/></g>
<g><path style="opacity:1" fill="#fcf4b5" d="M 361.5,220.5 C 343.5,220.5 325.5,220.5 307.5,220.5C 307.5,224.833 307.5,229.167 307.5,233.5C 320.5,233.5 333.5,233.5 346.5,233.5C 346.795,235.735 346.461,237.735 345.5,239.5C 345.5,237.833 345.5,236.167 345.5,234.5C 332.5,234.5 319.5,234.5 306.5,234.5C 306.5,229.5 306.5,224.5 306.5,219.5C 325.008,219.17 343.341,219.503 361.5,220.5 Z"/></g>
<g><path style="opacity:1" fill="#fae65c" d="M 433.5,232.5 C 439.5,232.5 445.5,232.5 451.5,232.5C 451.153,241.246 450.153,249.913 448.5,258.5C 442.656,257.956 436.989,256.622 431.5,254.5C 431.167,253.333 430.833,252.167 430.5,251C 431.47,244.683 432.47,238.516 433.5,232.5 Z"/></g>
<g><path style="opacity:1" fill="#fcf1a0" d="M 361.5,220.5 C 362.492,227.648 362.825,234.981 362.5,242.5C 368.026,242.179 373.36,242.512 378.5,243.5C 372.833,243.5 367.167,243.5 361.5,243.5C 361.5,235.833 361.5,228.167 361.5,220.5 Z"/></g>
<g><path style="opacity:1" fill="#fef9f1" d="M 194.5,249.5 C 194.762,250.978 194.429,252.311 193.5,253.5C 188.461,254.676 183.461,256.01 178.5,257.5C 177.295,256.423 176.628,255.09 176.5,253.5C 182.336,251.542 188.336,250.208 194.5,249.5 Z"/></g>
<g><path style="opacity:1" fill="#fdf6c0" d="M 345.5,242.5 C 339.69,243.49 333.69,243.823 327.5,243.5C 327.5,247.167 327.5,250.833 327.5,254.5C 332.544,254.173 337.544,254.506 342.5,255.5C 342.376,256.107 342.043,256.44 341.5,256.5C 336.695,255.513 331.695,255.179 326.5,255.5C 326.5,251.167 326.5,246.833 326.5,242.5C 332.833,242.5 339.167,242.5 345.5,242.5 Z"/></g>
<g><path style="opacity:1" fill="#fcf2a5" d="M 378.5,254.5 C 373.36,255.488 368.026,255.821 362.5,255.5C 362.828,266.014 362.494,276.347 361.5,286.5C 361.5,275.833 361.5,265.167 361.5,254.5C 367.167,254.5 372.833,254.5 378.5,254.5 Z"/></g>
<g><path style="opacity:1" fill="#fef8ee" d="M 444.5,268.5 C 438.907,266.636 433.241,264.97 427.5,263.5C 427.5,262.167 427.5,260.833 427.5,259.5C 433.86,260.838 440.193,262.172 446.5,263.5C 446.598,265.553 445.931,267.22 444.5,268.5 Z"/></g>
<g><path style="opacity:1" fill="#fae75d" d="M 204.5,279.5 C 199.193,282.153 193.86,284.82 188.5,287.5C 184.821,279.969 181.821,272.136 179.5,264C 184.96,260.79 190.96,258.957 197.5,258.5C 199.237,265.71 201.57,272.71 204.5,279.5 Z"/></g>
<g><path style="opacity:1" fill="#fae75d" d="M 427.5,263.5 C 433.241,264.97 438.907,266.636 444.5,268.5C 443.369,274.06 441.536,279.393 439,284.5C 437.822,287.533 436.156,290.199 434,292.5C 429.51,290.016 425.01,287.516 420.5,285C 419.643,284.311 418.977,283.478 418.5,282.5C 421.821,276.197 424.821,269.863 427.5,263.5 Z"/></g>
<g><path style="opacity:1" fill="#fef8ef" d="M 204.5,279.5 C 206.476,280.427 206.809,281.76 205.5,283.5C 200.54,285.966 195.706,288.633 191,291.5C 189.905,290.307 189.072,288.973 188.5,287.5C 193.86,284.82 199.193,282.153 204.5,279.5 Z"/></g>
<g><path style="opacity:1" fill="#fef9f1" d="M 429.5,300.5 C 423.87,298.019 418.537,295.019 413.5,291.5C 414.697,288.106 416.697,287.606 419.5,290C 423.367,292.698 427.367,295.198 431.5,297.5C 431.058,298.739 430.391,299.739 429.5,300.5 Z"/></g>
<g><path style="opacity:1" fill="#fae75d" d="M 222.5,305.5 C 218.141,309.528 213.807,313.528 209.5,317.5C 203.815,311.305 198.648,304.638 194,297.5C 193.312,296.668 193.479,296.002 194.5,295.5C 199.269,292.699 204.102,290.033 209,287.5C 213.691,293.358 218.191,299.358 222.5,305.5 Z"/></g>
<g><path style="opacity:1" fill="#fae75d" d="M 413.5,291.5 C 418.537,295.019 423.87,298.019 429.5,300.5C 425.145,308.03 419.812,314.864 413.5,321C 408.197,317.881 403.53,313.715 399.5,308.5C 404.424,302.947 409.091,297.28 413.5,291.5 Z"/></g>
<g><path style="opacity:1" fill="#fef7ee" d="M 222.5,305.5 C 223.627,306.122 224.627,306.955 225.5,308C 221.5,312 217.5,316 213.5,320C 211.588,320.279 210.254,319.446 209.5,317.5C 213.807,313.528 218.141,309.528 222.5,305.5 Z"/></g>
<g><path style="opacity:1" fill="#fae75d" d="M 246.5,325.5 C 243.402,330.709 240.068,335.709 236.5,340.5C 229.325,336.506 222.825,331.506 217,325.5C 216.333,324.833 216.333,324.167 217,323.5C 221,319.5 225,315.5 229,311.5C 234.419,316.76 240.253,321.427 246.5,325.5 Z"/></g>
<g><path style="opacity:1" fill="#fef7ee" d="M 405.5,328.5 C 401.527,323.86 397.194,319.527 392.5,315.5C 393.254,313.554 394.588,312.721 396.5,313C 400.333,316.833 404.167,320.667 408,324.5C 408.279,326.412 407.446,327.746 405.5,328.5 Z"/></g>
<g><path style="opacity:1" fill="#fae75d" d="M 392.5,315.5 C 397.194,319.527 401.527,323.86 405.5,328.5C 399.111,334.545 392.111,339.878 384.5,344.5C 381.114,339.563 378.114,334.396 375.5,329C 380.737,324.037 386.403,319.537 392.5,315.5 Z"/></g>
<g><path style="opacity:1" fill="#fef8f0" d="M 246.5,325.5 C 247.87,325.856 248.87,326.69 249.5,328C 246.967,333.568 243.8,338.735 240,343.5C 238.482,342.837 237.315,341.837 236.5,340.5C 240.068,335.709 243.402,330.709 246.5,325.5 Z"/></g>
<g><path style="opacity:1" fill="#fef9f1" d="M 375.5,348.5 C 372.515,343.202 369.515,337.868 366.5,332.5C 367.721,331.972 368.887,331.305 370,330.5C 372.748,335.666 375.748,340.666 379,345.5C 378.967,347.478 377.8,348.478 375.5,348.5 Z"/></g>
<g><path style="opacity:1" fill="#fae75d" d="M 274.5,339.5 C 272.678,345.121 271.011,350.788 269.5,356.5C 260.706,354.434 252.706,350.768 245.5,345.5C 248.178,340.133 251.345,335.133 255,330.5C 261.5,333.669 268,336.669 274.5,339.5 Z"/></g>
<g><path style="opacity:1" fill="#fae75e" d="M 366.5,332.5 C 369.515,337.868 372.515,343.202 375.5,348.5C 367.787,353.183 359.454,356.516 350.5,358.5C 348.998,352.505 347.831,346.505 347,340.5C 353.682,338.241 360.182,335.575 366.5,332.5 Z"/></g>
<g><path style="opacity:1" fill="#fef6ea" d="M 274.5,339.5 C 276.635,339.147 277.968,339.98 278.5,342C 276.34,347.299 275.007,352.799 274.5,358.5C 272.447,358.598 270.78,357.931 269.5,356.5C 271.011,350.788 272.678,345.121 274.5,339.5 Z"/></g>
<g><path style="opacity:1" fill="#fef8f1" d="M 337.5,342.5 C 338.833,342.5 340.167,342.5 341.5,342.5C 342.835,348.506 344.168,354.506 345.5,360.5C 344.167,360.5 342.833,360.5 341.5,360.5C 339.855,354.585 338.522,348.585 337.5,342.5 Z"/></g>
<g><path style="opacity:1" fill="#fae75e" d="M 305.5,344.5 C 305.5,350.833 305.5,357.167 305.5,363.5C 297.014,363.419 288.68,362.252 280.5,360C 279.833,353.491 281.166,347.324 284.5,341.5C 291.287,343.875 298.287,344.875 305.5,344.5 Z"/></g>
<g><path style="opacity:1" fill="#fae75e" d="M 337.5,342.5 C 338.522,348.585 339.855,354.585 341.5,360.5C 335.413,362.224 329.08,363.224 322.5,363.5C 320.167,363.5 317.833,363.5 315.5,363.5C 315.5,357.5 315.5,351.5 315.5,345.5C 317.415,345.784 319.081,345.451 320.5,344.5C 326.262,344.268 331.928,343.601 337.5,342.5 Z"/></g>
<g><path style="opacity:1" fill="#fefbf8" d="M 305.5,344.5 C 306.833,344.5 308.167,344.5 309.5,344.5C 309.5,350.833 309.5,357.167 309.5,363.5C 308.167,363.5 306.833,363.5 305.5,363.5C 305.5,357.167 305.5,350.833 305.5,344.5 Z"/></g>
<g><path style="opacity:1" fill="#f5c24b" d="M 320.5,344.5 C 319.081,345.451 317.415,345.784 315.5,345.5C 315.5,351.5 315.5,357.5 315.5,363.5C 317.833,363.5 320.167,363.5 322.5,363.5C 320.052,364.473 317.385,364.806 314.5,364.5C 314.5,357.833 314.5,351.167 314.5,344.5C 316.5,344.5 318.5,344.5 320.5,344.5 Z"/></g>
</svg>
